X: 072
T: Catton guil
%R: march, reel
M: 2/4
L: 1/16
Z: 2014 John Chambers <jc:trillian.mit.edu>
B: Chas & Sam Thompson "Twenty Four Country Dances for the Year 1802", London 1802, p.7 #2
F: http://folkopedia.efdss.org/images/4/41/Thompson_24_1802.PDF
K: D
|: f2f2 |\
d4 efge | dcBA f2f2 |\
a2a2 gfge | d4 H:|\
|: e2A2 |\
g2e2 f2a2 | f2d2 e2A2 |\
f2d2 ^gfge | "^ D.C."a4 :|
% - - - - - - - - - - - - - - - - - - - - - - - - -
%%begintext align
%% Hands across half round and back again
%% lead down the middle up again  Right
%% and left
%%endtext
% - - - - - - - - - - - - - - - - - - - - - - - - -
